images_sukapura_svg/cmd/sc_acceptalltrackedchanges.svg

<svg viewBox="0 0 16 16" xmlns="http://www.w3.org/2000/svg" xmlns:xlink="http://www.w3.org/1999/xlink"><linearGradient id="a" gradientUnits="userSpaceOnUse" x1="10" x2="11.500001" y1="4" y2="2.499999"><stop offset="0" stop-color="#fff"/><stop offset=".77967989" stop-color="#f1f1f1"/><stop offset="1" stop-color="#d5d5d5"/></linearGradient><radialGradient id="b" cx="10.994179" cy="4.42844" gradientTransform="matrix(1.4 .00000004 -.00000001 1.2 -4.39185 -2.314129)" gradientUnits="userSpaceOnUse" r="5"><stop offset="0" stop-color="#d7d7d7"/><stop offset=".49894297" stop-color="#f7f7f7"/><stop offset="1" stop-color="#fff"/></radialGradient><linearGradient id="c" gradientUnits="userSpaceOnUse" x1="-21.118644" x2="-21.118644" y1="22.61017" y2="10.11017"><stop offset="0" stop-color="#2a9240"/><stop offset="1" stop-color="#32d74b"/></linearGradient><path d="m3 1v14h10v-9.3632812-1.9316407l-2.695312-2.7050781zm10 12.496094-1.494141 1.503906h1.494141z" fill="url(#b)"/><path d="m3 0c-.554 0-1 .446-1 1v14c0 .554.446 1 1 1h2 .234375 5.261719 1.503906 1c.554 0 1-.446 1-1v-2.511719-6.894531-1.09375-.8632812l-3.636719-3.6367188h-.863281zm0 1h6v3.5c0 .277.223.5.5.5h3.5v.6367188 7.8632812 1.5h-1-.494141-6.2812496-.2246094-2zm7 0 3 3h-3zm-5.5234375 3c-.2637208 0-.4765625.2128417-.4765625.4765625v.0234375.0234375c0 .2637208.2128417.4765625.4765625.4765625h.0234375 3 .023437c.2637213 0 .476563-.2128417.476563-.4765625v-.0234375-.0234375c0-.2637208-.2128417-.4765625-.4765625-.4765625h-.0234375-3zm.0234375 6c-.277 0-.5.223-.5.5s.223.5.5.5h.4082031 2.2695313.4353482l.1681674-.097656c.1290277-.090239.21875-.23226.21875-.402344 0-.08553-.026904-.162162-.064453-.232422-.038238-.07155-.093395-.128532-.1601563-.173828-.012623-.009-.02365-.01761-.037109-.02539-.0717288-.039665-.1501985-.06836-.2382817-.06836zm4.9746094 0c-.2629153 0-.4746094.211694-.4746094.474609v.05078c0 .262919.2116941.474611.4746094.474611h.3867187l.8554689-.958984c-.05856-.025745-.123127-.041016-.191406-.041016zm-4.9746094 3c-.277 0-.5.223-.5.5s.223.5.5.5h.9941406 1.0058594c.277 0 .5-.223.5-.5s-.223-.5-.5-.5h-.7363281z" fill="#98989d"/><rect fill="#ff9f0a" height="1" ry=".5" width="7" x="4" y="7"/><path d="m10 1 3 3h-3z" fill="url(#a)"/><path d="m13.400391 3.0371094-4.462891 4.9960937-1.2285156-1.2011719c-.7639476-.747039-1.8962124-.746837-2.6601563 0-.7644436.747447-.7644569 1.9165833 0 2.6640626l.8632813.8457032c-.3098664.082843-.6081397.240806-.8632813.490234-.7644436.747447-.7644569 1.916584 0 2.664063l2.5605469 2.503906h2.783203l.03125-.037109 3.576172-3.998047v-4.0000002-2.3710938-1.09375-.8632812z" fill="#fff" fill-opacity=".784314"/><path d="m15.255859 3.0117188c-.08447-.015517-.171544-.016114-.261718.00195-.192169.040608-.369549.1462298-.494141.294925l-5.5136719 6.1699218-1.9765625-1.9316406c-.3304046-.323092-.9312527-.323066-1.2617187 0-.3304218.323075-.3304481.911266 0 1.234375l2.6328125 2.574219.6875.644531.6035156-.697266 6.144531-6.8671871c.435902-.4639888.030741-1.3152069-.560547-1.4238281zm0 4c-.08447-.015517-.171544-.016114-.261718.00195-.192169.040608-.369549.1462297-.494141.294925l-5.5136719 6.1699222-1.9765625-1.931641c-.3304046-.323092-.9312527-.323066-1.2617187 0-.3304218.323075-.3304481.911266 0 1.234375l2.6328125 2.574219.6875.644531.6035156-.697266 6.144531-6.8671871c.435902-.4639888.030741-1.3152069-.560547-1.4238281z" fill="url(#c)"/></svg>

<?xml version="1.0" encoding="UTF-8" standalone="no"?>
<svg
   xmlns:dc="http://purl.org/dc/elements/1.1/"
   xmlns:cc="http://creativecommons.org/ns#"
   xmlns:rdf="http://www.w3.org/1999/02/22-rdf-syntax-ns#"
   xmlns:svg="http://www.w3.org/2000/svg"
   xmlns="http://www.w3.org/2000/svg"
   xmlns:xlink="http://www.w3.org/1999/xlink"
   xmlns:sodipodi="http://sodipodi.sourceforge.net/DTD/sodipodi-0.dtd"
   xmlns:inkscape="http://www.inkscape.org/namespaces/inkscape"
   viewBox="0 0 16 16"
   version="1.1"
   id="svg14"
   sodipodi:docname="sc_acceptalltrackedchanges.svg"
   inkscape:export-filename="/home/rizmut/Dokumen/Rizmut/Github/libreoffice-style-sukapura/images_sukapura/cmd/sc_acceptalltrackedchanges.png"
   inkscape:export-xdpi="96"
   inkscape:export-ydpi="96"
   inkscape:version="0.92.3 (unknown)">
  <metadata
     id="metadata20">
    <rdf:RDF>
      <cc:Work
         rdf:about="">
        <dc:format>image/svg+xml</dc:format>
        <dc:type
           rdf:resource="http://purl.org/dc/dcmitype/StillImage" />
        <dc:title></dc:title>
      </cc:Work>
    </rdf:RDF>
  </metadata>
  <defs
     id="defs18">
    <linearGradient
       id="a"
       gradientUnits="userSpaceOnUse"
       x1="10"
       x2="11.500001"
       y1="4"
       y2="2.4999993">
      <stop
         offset="0"
         stop-color="#fff"
         id="stop976" />
      <stop
         offset=".77967989"
         stop-color="#f1f1f1"
         id="stop978" />
      <stop
         offset="1"
         stop-color="#d5d5d5"
         id="stop980" />
    </linearGradient>
    <radialGradient
       id="b"
       cx="10.994179"
       cy="4.4284401"
       gradientTransform="matrix(1.4,4e-8,-1e-8,1.2,-4.39185,-2.314129)"
       gradientUnits="userSpaceOnUse"
       r="5">
      <stop
         offset="0"
         stop-color="#d7d7d7"
         id="stop983" />
      <stop
         offset=".49894297"
         stop-color="#f7f7f7"
         id="stop985" />
      <stop
         offset="1"
         stop-color="#fff"
         id="stop987" />
    </radialGradient>
    <linearGradient
       gradientTransform="translate(18,-2)"
       id="a-3"
       gradientUnits="userSpaceOnUse"
       x1="14"
       x2="13.79661"
       y1="22"
       y2="2.1355929">
      <stop
         offset="0"
         stop-color="#0040dd"
         id="stop1851" />
      <stop
         offset="1"
         stop-color="#0a84ff"
         id="stop1853" />
    </linearGradient>
    <linearGradient
       inkscape:collect="always"
       xlink:href="#a-0"
       id="linearGradient1676"
       x1="10"
       y1="16"
       x2="10"
       y2="3.5"
       gradientUnits="userSpaceOnUse" />
    <linearGradient
       gradientTransform="translate(-31.118644,6.6101695)"
       id="a-0"
       gradientUnits="userSpaceOnUse"
       x1="14"
       x2="13.79661"
       y1="22"
       y2="2.1355929">
      <stop
         offset="0"
         stop-color="#0040dd"
         id="stop1586"
         style="stop-color:#2a9240;stop-opacity:1" />
      <stop
         offset="1"
         stop-color="#0a84ff"
         id="stop1588"
         style="stop-color:#32d74b;stop-opacity:1" />
    </linearGradient>
  </defs>
  <sodipodi:namedview
     pagecolor="#ffffff"
     bordercolor="#666666"
     borderopacity="1"
     objecttolerance="10"
     gridtolerance="10"
     guidetolerance="10"
     inkscape:pageopacity="0"
     inkscape:pageshadow="2"
     inkscape:window-width="1366"
     inkscape:window-height="699"
     id="namedview16"
     showgrid="true"
     inkscape:zoom="14.75"
     inkscape:cx="12.107423"
     inkscape:cy="9.9519884"
     inkscape:window-x="0"
     inkscape:window-y="0"
     inkscape:window-maximized="1"
     inkscape:current-layer="svg14"
     inkscape:snap-smooth-nodes="true"
     inkscape:snap-global="true">
    <inkscape:grid
       type="xygrid"
       id="grid831"
       spacingx="0.5"
       spacingy="0.5"
       empspacing="2" />
  </sodipodi:namedview>
  <path
     style="fill:url(#b)"
     d="M 3,1 V 15 H 13 V 5.6367188 3.7050781 L 10.304688,1 Z M 13,13.496094 11.505859,15 H 13 Z"
     id="path990"
     inkscape:connector-curvature="0"
     sodipodi:nodetypes="ccccccccccc" />
  <path
     style="fill:#98989d;fill-opacity:1"
     d="M 3,0 C 2.446,0 2,0.446 2,1 v 14 c 0,0.554 0.446,1 1,1 H 5 5.234375 10.496094 12 13 c 0.554,0 1,-0.446 1,-1 V 12.488281 5.59375 4.5 3.6367188 L 10.363281,0 H 9.5 Z M 3,1 H 9 V 4.5 C 9,4.777 9.223,5 9.5,5 H 13 V 5.6367188 13.5 15 H 12 11.505859 5.2246094 5 3 Z m 7,0 3,3 H 10 Z M 4.4765625,4 C 4.2128417,4 4,4.2128417 4,4.4765625 V 4.5 4.5234375 C 4,4.7871583 4.2128417,5 4.4765625,5 H 4.5 h 3 0.023437 C 7.7871583,5 8,4.7871583 8,4.5234375 V 4.5 4.4765625 C 8,4.2128417 7.7871583,4 7.5234375,4 H 7.5 4.5 Z M 4.5,10 C 4.223,10 4,10.223 4,10.5 4,10.777 4.223,11 4.5,11 H 4.9082031 7.1777344 L 7.6130826,11 7.78125,10.902344 C 7.9102777,10.812105 8,10.670084 8,10.5 c 0,-0.08553 -0.026904,-0.162162 -0.064453,-0.232422 -0.038238,-0.07155 -0.093395,-0.128532 -0.1601563,-0.173828 -0.012623,-0.009 -0.02365,-0.01761 -0.037109,-0.02539 C 7.6665529,10.028695 7.5880832,10 7.5,10 Z m 4.9746094,0 C 9.2116941,10 9,10.211694 9,10.474609 v 0.05078 C 9,10.788308 9.2116941,11 9.4746094,11 H 9.8613281 L 10.716797,10.041016 C 10.658237,10.015271 10.59367,10 10.525391,10 Z M 4.5,13 C 4.223,13 4,13.223 4,13.5 4,13.777 4.223,14 4.5,14 H 5.4941406 6.5 C 6.777,14 7,13.777 7,13.5 7,13.223 6.777,13 6.5,13 H 5.7636719 Z"
     id="path4"
     inkscape:connector-curvature="0"
     sodipodi:nodetypes="ssssccccssccccccsccssccccccccccccccsscssccsscssccssssccccscccssssssccssssscssscs" />
  <rect
     fill="#d65532"
     height="1"
     ry=".5"
     width="7"
     x="4"
     y="7"
     id="rect6"
     style="fill:#ff9f0a;fill-opacity:1" />
  <path
     inkscape:connector-curvature="0"
     style="fill:url(#a)"
     d="m 10,1 3,3 h -3 z"
     id="path994" />
  <path
     style="fill:#ffffff;fill-opacity:0.78431374"
     d="M 13.400391 3.0371094 L 8.9375 8.0332031 L 7.7089844 6.8320312 C 6.9450368 6.0849922 5.812772 6.0851942 5.0488281 6.8320312 C 4.2843845 7.5794782 4.2843712 8.7486145 5.0488281 9.4960938 L 5.9121094 10.341797 C 5.602243 10.42464 5.3039697 10.582603 5.0488281 10.832031 C 4.2843845 11.579478 4.2843712 12.748615 5.0488281 13.496094 L 7.609375 16 L 10.392578 16 L 10.423828 15.962891 L 14 11.964844 L 14 7.9648438 L 14 5.59375 L 14 4.5 L 14 3.6367188 L 13.400391 3.0371094 z "
     id="path1589" />
  <path
     inkscape:connector-curvature="0"
     d="m 15.255859,3.0117188 c -0.08447,-0.015517 -0.171544,-0.016114 -0.261718,0.00195 C 14.801972,3.0542768 14.624592,3.1598986 14.5,3.3085938 L 8.9863281,9.4785156 7.0097656,7.546875 c -0.3304046,-0.323092 -0.9312527,-0.323066 -1.2617187,0 -0.3304218,0.323075 -0.3304481,0.911266 0,1.234375 L 8.3808594,11.355469 9.0683594,12 9.671875,11.302734 15.816406,4.4355469 C 16.252308,3.9715581 15.847147,3.12034 15.255859,3.0117188 Z m 0,4 c -0.08447,-0.015517 -0.171544,-0.016114 -0.261718,0.00195 C 14.801972,7.0542768 14.624592,7.1598985 14.5,7.3085938 L 8.9863281,13.478516 7.0097656,11.546875 c -0.3304046,-0.323092 -0.9312527,-0.323066 -1.2617187,0 -0.3304218,0.323075 -0.3304481,0.911266 0,1.234375 L 8.3808594,15.355469 9.0683594,16 9.671875,15.302734 15.816406,8.4355469 C 16.252308,7.9715581 15.847147,7.12034 15.255859,7.0117188 Z"
     style="fill:url(#linearGradient1676);fill-opacity:1.0"
     id="path6-6" />
</svg>
